X:3030
T:Chuck and Di
M:C|
L:1/8
S:DavBarnert@aol.com, ABC Users group, 3/98
R:Morris
K:G
|:G2ABcBAG|AGFED2D2|G2ABcBAG|A2d2d4|
G2ABcBAG|AGFED2D2|EFGEAGFE|1D2G2G2D2:|2D2G2GABc|
|:d2d2B2B2|G2G2E4|c2c2A2A2|F2F2D4|
G2G2FAFD|G2G2FAFD|G2ABcBAG|1A2F2GABc:|2A2F2G4||


